X: 1655
T: The Flowers of Antrim
M:2/4
L:1/16
B:O'Neill's 1655
N:"collected by J.O'Neill"
K:G
b-a \
| gfgd B2e-d | cBcA F2D-E | FGAB cedc | Bcde d2b-a |
| gfgd B2e-d | cBcA F2D-E | FGAB cdef | g2g2 g2 :|
| B-c \
| dBgB dBgB | dBgB d2c-B | cafd cafd | cafd c2B-c |
| dBgB dBgB | dBgB d2c-B | cafd ^cdef | g2g2g2 :|


